X:1
T: Good Man of Cambridge
N:
C:Tune is "Rondo Alla Turca" by Mozart
S:
A:
O:
R:
M:4/4
K:Am
I:speed 200
%W: A1
% voice 1 (1 lines, 42 notes)
K:Am
M:4/4
L:1/16
B2 A2 ^G2 A2 |c8 d2 c2 B2 c2 |e8 f2 e2 ^d2 e2 |b2 a2 ^g2 a2 b2 a2 g2 a2 |c'8 a4 c'4 |b4 a4 g4 a4 |b4 a4 g4 a4 |b4 a4 g4 ^f4 |e8 B2 A2 ^G2 A2 |
%W: A2
% voice 1 (1 lines, 36 notes)
c8 d2 c2 B2 c2 |e8 f2 e2 ^d2 e2 |b2 a2 ^g2 a2 b2 a2 g2 a2 |c'8 a4 c'4 |b4 a4 g4 a4 |b4 a4 g4 a4 |b4 a4 g4 ^f4 |e8 e4 f4 |
%W: B
% voice 1 (1 lines, 38 notes)
g4 g4 a2 g2 f2 e2 |d8 e4 f4 |g4 g4 a2 g2 f2 e2 |d8 c4 d4 |e4 e4 f2 e2 d2 c2 |B8 c4 d4 |e4 e4 f2 e2 d2 c2 |B8 B2 A2 ^G2 A2 |
%W:
% voice 1 (1 lines, 34 notes)
c8 d2 c2 B2 c2 |e8 f2 e2 ^d2 e2 |b2 a2 ^g2 a2 b2 a2 g2 a2 |c'8 a4 b4 |c'4 b4 a4 ^g4 |a4 e4 f4 d4 |c8 B8 |A8 a4 b4 |
%W: C1
% voice 1 (1 lines, 29 notes)
K:A
c'8 a4 b4 |c'4 b4 a4 g4 |f4 g4 a4 b4 |g4 e4 a4 b4 |c'8 a4 b4 |c'4 b4 a4 g4 |f4 b4 g4 e4 |a8 a4 b4 |
%W: C2
% voice 1 (1 lines, 27 notes)
c'8 a4 b4 |c'4 b4 a4 g4 |f4 g4 a4 b4 |g4 e4 a4 b4 |c'8 a4 b4 |c'4 b4 a4 g4 |f4 b4 g4 e4 |a8 ||
